svgs/light/dryer-heat.svg

<svg xmlns="http://www.w3.org/2000/svg" viewBox="0 0 448 512"><!--! Font Awesome Pro 6.3.0 by @fontawesome - https://fontawesome.com License - https://fontawesome.com/license (Commercial License) Copyright 2023 Fonticons, Inc. --><path d="M352 0H96C42.98 0 0 42.98 0 96v352c0 35.35 28.65 64 64 64h320c35.35 0 64-28.65 64-64V96C448 42.98 405 0 352 0zM416 448c0 17.64-14.36 32-32 32H64c-17.64 0-32-14.36-32-32V96c0-35.29 28.71-64 64-64h256c35.29 0 64 28.71 64 64V448zM192.1 120C205.3 120 216 109.3 216 96S205.3 72 192.1 72C178.7 72 168 82.75 168 96S178.7 120 192.1 120zM120 96c0-13.25-10.69-24-24-24C82.82 72 72 82.75 72 96S82.82 120 96 120C109.3 120 120 109.3 120 96zM224 160C144.5 160 80.01 224.5 80.01 304S144.5 448 224 448s143.1-64.5 143.1-144S303.5 160 224 160zM224 416c-61.75 0-111.1-50.24-111.1-112S162.3 192 224 192c61.75 0 111.1 50.24 111.1 112S285.7 416 224 416zM212.6 350c-10.25-10.25-12.78-25.88-6.297-38.84c12.66-25.31 7.719-55.75-12.31-75.78L187.3 228.7c-6.25-6.25-16.38-6.25-22.62 0C158.4 234.1 158.4 245.1 164.7 251.3L171.4 258c10.25 10.25 12.78 25.88 6.297 38.84c-12.66 25.31-7.719 55.75 12.31 75.78l6.703 6.688C199.8 382.4 203.9 384 208 384s8.203-1.562 11.33-4.688c6.234-6.281 6.234-16.41-.0313-22.62L212.6 350zM276.6 350c-10.25-10.25-12.78-25.88-6.297-38.84c12.66-25.31 7.719-55.75-12.31-75.78l-6.703-6.688c-6.25-6.25-16.38-6.25-22.62 0c-6.234 6.281-6.234 16.41 .0313 22.62L235.4 258c10.25 10.25 12.78 25.88 6.297 38.84c-12.66 25.31-7.719 55.75 12.31 75.78l6.703 6.688C263.8 382.4 267.9 384 272 384s8.203-1.562 11.33-4.688c6.234-6.281 6.234-16.41-.0313-22.62L276.6 350z"/></svg>

<svg xmlns="http://www.w3.org/2000/svg" viewBox="0 0 448 512"><!-- Font Awesome Pro 6.0.0-alpha2 by @fontawesome - https://fontawesome.com License - https://fontawesome.com/license (Commercial License) --><path d="M352 0H96C42.98 0 0 42.98 0 96V448C0 483.348 28.654 512 64 512H384C419.346 512 448 483.348 448 448V96C448 42.98 405.02 0 352 0ZM416 448C416 465.645 401.645 480 384 480H64C46.355 480 32 465.645 32 448V96C32 60.711 60.711 32 96 32H352C387.289 32 416 60.711 416 96V448ZM192.062 120C205.277 120 216 109.25 216 96S205.277 72 192.062 72C178.723 72 168 82.75 168 96S178.723 120 192.062 120ZM120 96C120 82.75 109.307 72 96 72C82.818 72 72 82.75 72 96S82.818 120 96 120C109.307 120 120 109.25 120 96ZM224 160C144.48 160 80.018 224.5 80.018 304S144.48 448 224 448S367.982 383.5 367.982 304S303.52 160 224 160ZM224 416C162.254 416 112.018 365.758 112.018 304S162.254 192 224 192C285.748 192 335.982 242.242 335.982 304S285.748 416 224 416ZM212.609 350C202.359 339.75 199.828 324.125 206.313 311.156C218.969 285.844 214.031 255.406 194 235.375L187.297 228.688C181.047 222.438 170.922 222.438 164.672 228.688C158.438 234.969 158.438 245.094 164.703 251.312L171.391 258C181.641 268.25 184.172 283.875 177.687 296.844C165.031 322.156 169.969 352.594 190 372.625L196.703 379.313C199.828 382.438 203.906 384 208 384S216.203 382.438 219.328 379.312C225.562 373.031 225.562 362.906 219.297 356.688L212.609 350ZM276.609 350C266.359 339.75 263.828 324.125 270.313 311.156C282.969 285.844 278.031 255.406 258 235.375L251.297 228.687C245.047 222.437 234.922 222.437 228.672 228.687C222.438 234.969 222.438 245.094 228.703 251.312L235.391 258C245.641 268.25 248.172 283.875 241.687 296.844C229.031 322.156 233.969 352.594 254 372.625L260.703 379.313C263.828 382.438 267.906 384 272 384S280.203 382.438 283.328 379.312C289.562 373.031 289.562 362.906 283.297 356.688L276.609 350Z"/></svg>
